;PYCAM-META-DATA: Filename: /Users/Kyle/github/Carbon Fiber Trumpet/test 3d printed mold.stl
;PYCAM-META-DATA: Timestamp: 2012-05-12 22:54:25.210126
;PYCAM-META-DATA: Version: 0.5.1
;Estimated machine time: 38 minutes
G54 (select coordinate system 1)
G90 (disable incremental moves)
G21 (metric)
G61 (exact path mode)
F200.00000
S1000.00000

;PYCAM_TOOLPATH_SETTINGS: START
;[Bounds]
;maxz = 9.52499985695
;maxx = 25.0700004578
;maxy = 25.0700004578
;minx = -25.0700004578
;miny = -25.0700004578
;minz = 3.17499995232
;
;[Tool]
;torus_radius = 0.25
;speed = 1000.0
;shape = CylindricalCutter
;tool_radius = 1.6
;feedrate = 200.0
;
;[Process]
;generator = PushCutter
;pocketing_type = none
;engrave_offset = 0.0
;milling_style = ignore
;path_direction = x
;step_down = 3.0
;postprocessor = SimpleCutter
;overlap_percent = 0
;material_allowance = 0.5
;
;PYCAM_TOOLPATH_SETTINGS: END
G0 Z25.0000
G04 P3 (wait for 3 seconds) X-25.0700 Y-25.0700
G1 Z9.5250 X25.0700 Y-21.9363
G0 Z25.0000 X-24.3250
G1 Z9.5250 X-25.0700 Y-18.8025
G0 Z25.0000 X24.3250
G1 Z9.5250 X25.0700 Y-15.6688
G0 Z25.0000 X6.4623
G1 Z9.5250 X-6.4623
G0 Z25.0000 X-24.3250
G1 Z9.5250 X-25.0700 Y-12.5350
G0 Z25.0000
 X-11.4083
G1 Z9.5250
 X-7.8677
G0 Z25.0000
 X7.8677
G1 Z9.5250
 X11.4082
G0 Z25.0000
 X24.3250
G1 Z9.5250
 X25.0700
 Y-9.4013
 X24.3250
G0 Z25.0000
 X14.1034
G1 Z9.5250
 X11.4302
G0 Z25.0000
 X-11.4302
G1 Z9.5250
 X-14.1034
G0 Z25.0000
 X-24.3250
G1 Z9.5250
 X-25.0700
 Y-6.2675
 X-24.3250
G0 Z25.0000
 X-15.7482
G1 Z9.5250
 X-13.4071
G0 Z25.0000
 X13.4072
G1 Z9.5250
 X15.7482
G0 Z25.0000
 X24.3250
G1 Z9.5250
 X25.0700
 Y-3.1338
 X24.3250
G0 Z25.0000
 X16.6573
G1 Z9.5250
 X14.4640
G0 Z25.0000
 X-14.4640
G1 Z9.5250
 X-16.6573
G0 Z25.0000
 X-24.3250
G1 Z9.5250
 X-25.0700
 Y0.0000
 X-24.3250
G0 Z25.0000
 X-16.9499
G1 Z9.5250
 X-14.8000
G0 Z25.0000
 X14.8000
G1 Z9.5250
 X16.9499
G0 Z25.0000
 X24.3250
G1 Z9.5250
 X25.0700
 Y3.1338
 X24.3250
G0 Z25.0000
 X16.9500
G1 Z9.5250
 X14.8000
G0 Z25.0000
 X-14.8000
G1 Z9.5250
 X-16.9500
G0 Z25.0000
 X-24.3250
G1 Z9.5250
 X-25.0700
 Y6.2675
 X-24.3250
G0 Z25.0000
 X-16.9500
G1 Z9.5250
 X-14.8000
G0 Z25.0000
 X14.8000
G1 Z9.5250
 X16.9500
G0 Z25.0000
 X24.3250
G1 Z9.5250
 X25.0700
 Y9.4013
 X24.3250
G0 Z25.0000
 X16.9500
G1 Z9.5250
 X14.8000
G0 Z25.0000
 X-14.8000
G1 Z9.5250
 X-16.9500
G0 Z25.0000
 X-24.3250
G1 Z9.5250
 X-25.0700
 Y12.5350
 X-24.3250
G0 Z25.0000
 X-16.9500
G1 Z9.5250
 X-14.8000
G0 Z25.0000
 X14.8000
G1 Z9.5250
 X16.9500
G0 Z25.0000
 X24.3250
G1 Z9.5250
 X25.0700
 Y15.6688
 X24.3250
G0 Z25.0000
 X16.9500
G1 Z9.5250
 X14.8000
G0 Z25.0000
 X-14.8000
G1 Z9.5250
 X-16.9500
G0 Z25.0000
 X-24.3250
G1 Z9.5250
 X-25.0700
 Y18.8025
 X-24.3250
G0 Z25.0000
 X-16.9500
G1 Z9.5250
 X-14.8000
G0 Z25.0000
 X14.8000
G1 Z9.5250
 X16.9500
G0 Z25.0000
 X24.3250
G1 Z9.5250
 X25.0700
 Y21.9363
 X24.3250
G0 Z25.0000
 X16.9500
G1 Z9.5250
 X14.8000
G0 Z25.0000
 X7.9000
G1 Z9.5250
 X-7.9000
G0 Z25.0000
 X-14.8000
G1 Z9.5250
 X-16.9500
G0 Z25.0000
 X-24.3250
G1 Z9.5250
 X-25.0700
 Y25.0700
 X25.0700
 Z7.4083
 X-25.0700
 Y21.9363
 X-24.3250
G0 Z25.0000
 X-16.1395
G1 Z7.4083
 X-15.6105
G0 Z25.0000
 X15.6105
G1 Z7.4083
 X16.1395
G0 Z25.0000
 X24.3250
G1 Z7.4083
 X25.0700
 Y18.8025
 X24.3250
G0 Z25.0000
 X16.1395
G1 Z7.4083
 X15.6105
G0 Z25.0000
 X-15.6105
G1 Z7.4083
 X-16.1395
G0 Z25.0000
 X-24.3250
G1 Z7.4083
 X-25.0700
 Y15.6688
 X-24.3250
G0 Z25.0000
 X-16.1395
G1 Z7.4083
 X-15.6105
G0 Z25.0000
 X15.6105
G1 Z7.4083
 X16.1395
G0 Z25.0000
 X24.3250
G1 Z7.4083
 X25.0700
 Y12.5350
 X24.3250
G0 Z25.0000
 X16.1395
G1 Z7.4083
 X15.6105
G0 Z25.0000
 X-15.6105
G1 Z7.4083
 X-16.1395
G0 Z25.0000
 X-24.3250
G1 Z7.4083
 X-25.0700
 Y9.4013
 X-24.3250
G0 Z25.0000
 X-16.1395
G1 Z7.4083
 X-15.6105
G0 Z25.0000
 X15.6105
G1 Z7.4083
 X16.1395
G0 Z25.0000
 X24.3250
G1 Z7.4083
 X25.0700
 Y6.2675
 X24.3250
G0 Z25.0000
 X16.1395
G1 Z7.4083
 X15.6105
G0 Z25.0000
 X-15.6105
G1 Z7.4083
 X-16.1395
G0 Z25.0000
 X-24.3250
G1 Z7.4083
 X-25.0700
 Y3.1338
 X-24.3250
G0 Z25.0000
 X-16.1395
G1 Z7.4083
 X-15.6105
G0 Z25.0000
 X15.6105
G1 Z7.4083
 X16.1395
G0 Z25.0000
 X24.3250
G1 Z7.4083
 X25.0700
 Y0.0000
 X24.3250
G0 Z25.0000
 X16.1395
G1 Z7.4083
 X15.6105
G0 Z25.0000
 X-15.6105
G1 Z7.4083
 X-16.1395
G0 Z25.0000
 X-24.3250
G1 Z7.4083
 X-25.0700
 Y-3.1338
 X-24.3250
G0 Z25.0000
 X-15.8316
G1 Z7.4083
 X-15.2918
G0 Z25.0000
 X15.2919
G1 Z7.4083
 X15.8316
G0 Z25.0000
 X24.3250
G1 Z7.4083
 X25.0700
 Y-6.2675
 X24.3250
G0 Z25.0000
 X14.8728
G1 Z7.4083
 X14.2963
G0 Z25.0000
 X-14.2963
G1 Z7.4083
 X-14.8728
G0 Z25.0000
 X-24.3250
G1 Z7.4083
 X-25.0700
 Y-9.4013
 X-24.3250
G0 Z25.0000
 X-13.1178
G1 Z7.4083
 X-12.4615
G0 Z25.0000
 X12.4615
G1 Z7.4083
 X13.1178
G0 Z25.0000
 X24.3250
G1 Z7.4083
 X25.0700
 Y-12.5350
 X24.3250
G0 Z25.0000
 X10.1652
G1 Z7.4083
 X9.3023
G0 Z25.0000
 X-9.3023
G1 Z7.4083
 X-10.1652
G0 Z25.0000
 X-24.3250
G1 Z7.4083
 X-25.0700
 Y-15.6688
 X-24.3250
G0 Z25.0000
 X-3.8662
G1 Z7.4083
 X3.8662
G0 Z25.0000
 X24.3250
G1 Z7.4083
 X25.0700
 Y-18.8025
 X24.3250
G0 Z25.0000
 X-24.3250
G1 Z7.4083
 X-25.0700
 Y-21.9363
 X-24.3250
G0 Z25.0000
 X24.3250
G1 Z7.4083
 X25.0700
 Y-25.0700
 X-25.0700
 Z5.2917
 X25.0700
 Y-21.9363
 X24.3250
G0 Z25.0000
 X-24.3250
G1 Z5.2917
 X-25.0700
 Y-18.8025
 X-24.3250
G0 Z25.0000
 X24.3250
G1 Z5.2917
 X25.0700
 Y-15.6688
 X24.3250
G0 Z25.0000
 X-24.3250
G1 Z5.2917
 X-25.0700
 Y-12.5350
 X-24.3250
G0 Z25.0000
 X24.3250
G1 Z5.2917
 X25.0700
 Y-9.4013
 X24.3250
G0 Z25.0000
 X-24.3250
G1 Z5.2917
 X-25.0700
 Y-6.2675
 X-24.3250
G0 Z25.0000
 X24.3250
G1 Z5.2917
 X25.0700
 Y-3.1338
 X24.3250
G0 Z25.0000
 X-24.3250
G1 Z5.2917
 X-25.0700
 Y0.0000
 X-24.3250
G0 Z25.0000
 X24.3250
G1 Z5.2917
 X25.0700
 Y3.1338
 X24.3250
G0 Z25.0000
 X-24.3250
G1 Z5.2917
 X-25.0700
 Y6.2675
 X-24.3250
G0 Z25.0000
 X24.3250
G1 Z5.2917
 X25.0700
 Y9.4013
 X24.3250
G0 Z25.0000
 X-24.3250
G1 Z5.2917
 X-25.0700
 Y12.5350
 X-24.3250
G0 Z25.0000
 X24.3250
G1 Z5.2917
 X25.0700
 Y15.6688
 X24.3250
G0 Z25.0000
 X-24.3250
G1 Z5.2917
 X-25.0700
 Y18.8025
 X-24.3250
G0 Z25.0000
 X24.3250
G1 Z5.2917
 X25.0700
 Y21.9363
 X24.3250
G0 Z25.0000
 X-24.3250
G1 Z5.2917
 X-25.0700
 Y25.0700
 X25.0700
 Z3.1750
 X-25.0700
 Y21.9363
 X-24.3250
G0 Z25.0000
 X24.3250
G1 Z3.1750
 X25.0700
 Y18.8025
 X24.3250
G0 Z25.0000
 X-24.3250
G1 Z3.1750
 X-25.0700
 Y15.6688
 X-24.3250
G0 Z25.0000
 X24.3250
G1 Z3.1750
 X25.0700
 Y12.5350
 X24.3250
G0 Z25.0000
 X-24.3250
G1 Z3.1750
 X-25.0700
 Y9.4013
 X-24.3250
G0 Z25.0000
 X24.3250
G1 Z3.1750
 X25.0700
 Y6.2675
 X24.3250
G0 Z25.0000
 X-24.3250
G1 Z3.1750
 X-25.0700
 Y3.1338
 X-24.3250
G0 Z25.0000
 X24.3250
G1 Z3.1750
 X25.0700
 Y0.0000
 X24.3250
G0 Z25.0000
 X-24.3250
G1 Z3.1750
 X-25.0700
 Y-3.1338
 X-24.3250
G0 Z25.0000
 X24.3250
G1 Z3.1750
 X25.0700
 Y-6.2675
 X24.3250
G0 Z25.0000
 X-24.3250
G1 Z3.1750
 X-25.0700
 Y-9.4013
 X-24.3250
G0 Z25.0000
 X24.3250
G1 Z3.1750
 X25.0700
 Y-12.5350
 X24.3250
G0 Z25.0000
 X-24.3250
G1 Z3.1750
 X-25.0700
 Y-15.6688
 X-24.3250
G0 Z25.0000
 X24.3250
G1 Z3.1750
 X25.0700
 Y-18.8025
 X24.3250
G0 Z25.0000
 X-24.3250
G1 Z3.1750
 X-25.0700
 Y-21.9363
 X-24.3250
G0 Z25.0000
 X24.3250
G1 Z3.1750
 X25.0700
 Y-25.0700
 X-25.0700
G0 Z25.0000
G04 P3 (wait for 3 seconds)
G0 Z25.0000
M2 (end program)
